X:1
T:Title
%%score { ( 1 4 5 ) | ( 2 3 ) }
L:1/8
M:4/4
K:G
V:1 treble nm="Grand Piano"
V:4 treble 
V:5 treble 
V:2 bass 
V:3 bass 
V:1
 z4 z2[Q:1/4=165] [B,D]2 | [B,D]4 E2 F2 | [B,G]2 G4 G2 | [EG]4 F2 E2 | [B,D]6 [B,D]2 | %5
 [B,D]4 E2 F2 | [B,G]2 [B,G]4 [DG]2 | [^CB]4 A2 G2 |[M:9/8] A6- A z z |[M:4/4] B4 z4 | %10
 [B,D]2 D4 G2 | [B,G]4 A2 B2 | [Ec]6 [Ec]2 | [Ec]4 B2 A2 | [B,G]2 D4 B2 | [DB]4 A2 D2 | %16
[M:3/4] [G,B,G]6 |[M:6/8] z [Bd]2- [Bd]2 z | z2 [Ac]- [Ac]3 | z [Ac]2- [Ac]2 z | z2 [GB]- [GB]3 | %21
 z [EG]2- [EG]2 z | z2 [DG]- [DG]3- | [DG] [^CA]2- [CA]2 z |[M:7/8] z d-d- d- d3 | %25
[M:3/4] z [Bd]- [Bd]3 z | z2 [Ac]4 | z [Ac]- [Ac]3 z | z2 [GB]4 | z [EG]- [EG]3 z | z2 [DG]4- | %31
 [DG][DA]- [DA]3 z |[M:5/8] z [DG]- [DG]3- | [DG] z z z2 |] %34
V:2
 z4 z2 G,,2 | z4 C2 A,2 | z2 B,4 B,2 | z4 D2 C2 | [G,,G,]8 | z4 C2 A,2 | [G,,G,]6 [B,,B,]2 | %7
 z4 ^C2 E2 |[M:9/8] .D3 z3 z [D,F,C]2 |[M:4/4] z4 C2 B,2 | z2 B,4 B,2 | z4 C2 D2 | [C,,C,]8 | %13
 z4 D2 C2 | z2 B,4 D2 | z4 C2 C2 |[M:3/4] G,,6 |[M:6/8] G,G,G, G,G,G, | G,D,A, F, D,2 | %19
 D,D,D, D,D,D, | D,G,D, B,, G,,2 | G,,C,C, C,C,C, | C,G,,B,, D, G,2- | G,A,,A,, .A,,2 ^C | %24
[M:7/8] ^CD-[E,D-] [F,D-] [A,D]3 |[M:3/4] [G,B,D][G,D] G,G, G,G, | G,D, A,F, D,2 | D,D, D,D, D,D, | %28
 D,G, D,B,, G,,2 | G,,C, C,C, C,C, | C,G,, B,,D, G,2- | G,D, D,D, z D |[M:5/8] DG,,B,, D,G,,- | %33
 G,, z z z2 |] %34
V:3
 x8 | [G,,G,]8 | [G,,G,]8 | [C,,C,]8 | x8 | [G,,G,]8 | x8 | [A,,A,]8 | %8
[M:9/8] [D,F,]6- [D,F,]/ z/ z z |[M:4/4] [G,,G,]8 | [G,,G,]8 | [G,,G,]8 | x8 | [C,,C,]8 | %14
 [D,,D,]8 | [D,,D,]8 |[M:3/4] x6 |[M:6/8] x6 | x6 | x6 | x6 | x6 | x6 | z3 z A,,2- | %24
[M:7/8] A,,[D,F,] z z z z2 |[M:3/4] x6 | x6 | x6 | x6 | x6 | x6 | z2 z2 D,2- |[M:5/8] D, z z z2 | %33
 x5 |] %34
V:4
 x8 | x8 | x8 | x8 | x8 | x8 | x8 | x8 |[M:9/8] z2 ^C- C =C2- C D2 |[M:4/4] B,2 D2 A2 G2 | x8 | %11
 x8 | x8 | x8 | x8 | x8 |[M:3/4] x6 |[M:6/8] [B,D]DD DD[DAc] | [DGB][DFA]D D D2 | DDD DD[DGB] | %20
 [CDA][B,DG]D D D2 | [B,DG]CC CC[G,DF] | [G,CE][G,B,D]G, B, B,2- | B,A,A, .A,2 B | %24
[M:7/8] A z G, A, C3 |[M:3/4] .d2 DD D[DAc] | [DGB][DFA] DD D2 | DD DD D[DGB] | [CDA][B,DG] DD D2 | %29
 [B,DG]C CC C[G,DF] | [G,CE][G,B,D] G,B, B,2- | B,C CC z B |[M:5/8] AB,B, B,B,- | B, z z z2 |] %34
V:5
 x8 | x8 | x8 | x8 | x8 | x8 | x8 | x8 |[M:9/8] x9 |[M:4/4] x8 | x8 | x8 | x8 | x8 | x8 | x8 | %16
[M:3/4] x6 |[M:6/8] x6 | x6 | x6 | x6 | x6 | x6 | z3 z G,2- |[M:7/8] G, z z z z z2 |[M:3/4] x6 | %26
 x6 | x6 | x6 | x6 | x6 | z2 z2 C2- |[M:5/8] C z z z2 | x5 |] %34

